!!!OTL: 314. Lied vom deutſchen Krieg (l639).
!!!ARE: Europa, Mitteleuropa, Deutschland
!!!SCT: E0314
!!!TXL: @@DE, @@LAT
!!!YEM: Copyright 1995, estate of Helmut Schaffrath.
**kern	**text
*ICvox	*
*M2/2	*
*met(c|)	*
*k[]	*
*C:	*
=1	=1
!LO:TX:a:t=Mel. handſchriftl.	!
!LO:TX:a:t=Motto "Jm Glück iſt weder Glück noch Stern, den lieben Fried wir all begehrn.	!
2r	.
4r	.
{4cc	Heu
=2	=2
4.cc	Mar-
8cc	-tis
4cc	a-
4dd	-le-
=3	=3
2ee	-a!
4r}	.
{4ee	So
=4	=4
4.ee	man
8ee	die
4ee	Sach
4dd	beim
=5	=5
4.ee	Licht
8ee	be-
4dd}	-tracht.
{4ee	lon-
=6	=6
4ff-	-ge
4ee	mi-
4dd	-ser-
4cc	-ri-
=7	=7
2dd	-ma!
4r}	.
{4dd	Dum
=8	=8
4.dd	vin-
8ee	-ci-
4dd	-mus,
4cc	oc-
=9	=9
4b	-cum-
4cc	-bi-
4dd}	-mus,
{4dd	der
=10	=10
4.dd	Sieg
8ee	iſt
4dd	un-
4cc	-ſer
=11	=11
4b	Hin-
4cc	-der-
4dd}	-nuß
{4g	et
=12	=12
4a	lae-
4cc	-va
4cc	tes-
4b	-se-
=13	=13
1cc;}	-ra.
==	==
!!!AGN: historisches Lied, Dreissigjaehriger Krieg
!!!ONB: ESAC (Essen Associative Code) Database: ERK1
!!!AMT: simple duple
!!!AIN: vox
!!!EED: Helmut Schaffrath
!!!EEV: 1.0
!!!GTL: Historische Lieder
!!!URL-scan: https://rosdok.uni-rostock.de/mcrviewer/recordIdentifier/rosdok_ppn745177662/iview2/phys_0127.iview2?x=-544.0401362767932&y=1064.06945005944&scale=0.4722427387526479&rotation=0&layout=singlePageLayout
!!!ENC: Anna Maria Matuszewska
!!!EEV: 2024/06/12
*-	*-
